X:1
T:McCabe's Reel [1]
L:1/8
M:2/2
I:linebreak $
K:G
V:1 treble 
V:1
 (GA) |: B3 G ABGE | DGBG (3ABc Ac | BGGB A2 ef | gedB eAAc | (3Bcd BG ABGE |$ DGBG (3ABc Ac | %7
 BGGB A2 ef | gedc BG G2 :: B | dgbg agea | gedB GABd |$ eaab aged | gabg ageg | dgbg agea | %15
 gedB GA^cd | abag egfa |$ gedc BG G2 :| %18
